X: 313
T: Mrs MacLeod of Raasay
C: Sir Alexander MacDonald
M:4/4
R:reel
L:1/8
Z:Alf Warnock - alf0@rogers.com
K:A
cB|"A"A2a2 fefa|c/2c/2c cB c2cB|A2a2 fefa|"Bm"B/2B/2B BA "E7"BdcB|
"A"A2a2 fefa|c/2c/2c cB c2ce|"D"f2fg "Bm"fefg|"E7"afec Bd:|
cB|"A"ABcd eccA|c/2c/2c cB c2cB|ABcd eccA|"E7"B/2B/2B BA B2cB|
"A"ABcd eccA|c/2c/2c cB c2ce|"D"f2fg "Bm"fefg|"E7"afec B2:|
